X: 3
T:Outer Magnolia Reel
% Nottingham Music Database
S:Mike Richardson 27.10.90, via PR
M:4/4
L:1/4
K:A
"A"\
P:3
[c/2e/2][B/2d/2][A/2c/2][G/2B/2] [A/2c/2][B/2d/2][c/2e/2][d/2f/2]|"A"[e/2a/2][c/2e/2]"D"[f/2a/2][c/2e/2] "A"[e/2a/2][ce][e/2a/2]|"D"
P:3
[f/2a/2][e/2g/2][d/2f/2][c/2e/2] [d/2f/2][e/2g/2][f/2a/2][g/2b/2]|"A"[a/2c'/2][e/2a/2][c/2e/2][A/2c/2] "E"[B/2e/2][A/2c/2][G/2B/2][B/2e/2]|\
"A"[c/2e/2][B/2d/2][A/2c/2][G/2B/2] [A/2c/2][B/2d/2][c/2e/2][d/2f/2]|
"A"[e/2a/2][c/2e/2]"D"[f/2a/2][c/2e/2] "A"[e/2a/2][ce][e/2a/2]|"D"[f/2a/2][e/2g/2][d/2f/2][f/2a/2] "A"[e/2a/2][A/2c/2][c/2e/2][A/2c/2]|\
 [1"E"[B/2e/2][A/2c/2][G/2B/2][B/2e/2] "A"[A3/2c3/2][B/2d/2]:|
 [2"E"[B/2e/2][A/2c/2][G/2B/2][B/2e/2] "A"[A/2c/2][B/2d/2][c/2e/2][d/2f/2]|:"A"[ea]"D"[fa] "A"[e3/2a3/2][e/2a/2]|"D"[fa]"E"[gb] "A"[ac'][g/2b/2][f/2a/2]|\
"A"[e/2a/2][f/2a/2][g/2b/2][a/2c'/2] [e/2a/2][d/2f/2][c/2e/2][e/2a/2]|"D"
P:3
[f/2a/2][e/2g/2][d/2f/2]\
P:3
[c/2e/2] "E"[Be][c/2e/2][d/2f/2]|"A"[ea]"D"[fa] "A"[e3/2a3/2][e/2a/2]|"D"[fa]"E"[gb] "A"[ac'][g/2b/2][f/2a/2]|"A"[e/2a/2][f/2a/2][g/2b/2][a/2c'/2] [e/2a/2][d/2f/2]
P:3
[c/2e/2][e/2a/2]| [1"E"[d/2f/2][B/2e/2][G/2B/2][B/2e/2] "A"[A/2c/2][B/2d/2][c/2e/2][d/2f/2]:| [2"E"[d/2f/2][B/2e/2][G/2B/2][B/2e/2] "A"[A3/2c3/2][B/2d/2]||


